X:252
T:Sheriffs Ball. VWMLa.252
%%VWML:Anon2-3049-p168-0
F:http://www.vwml.org/record/Anon2/3049/p168
S:Anon. MS, late 18thC, Vaughan Williams Mem. Library
N:Unnecessary lead note (A,). Last note of bar 4 was E2. PJH.
O:England;Yorkshire
Z:vmp/efdss.Simon Wilson. Reviewed PJH 2008....
%A,|
M:C|
L:1/8
Q:1/2=50
K:D
D>ED>F A>BA>A|(B<d)A>F (G<E)E2|\
D>ED>F A>BA>A|(B<d)A>F {F}E4:|
f>gf>d (e<c)(B<A)|d>ed>B c<AG<F|\
B>cB>G A<FE<D|E>FG>F {F}E4|
D>ED>F A>BA>A|(B<d)(A<d) (G<d)(F>d)|\
D>ED>F A>BA>g|f>dA>c {c}d2|]
T:Prince Edwards Fancy. VWMLa.253
R:March
S:Anon. MS, late 18thC, Vaughan Williams Mem. Library
N:The lead notes were AG. PJH.
O:England;Yorkshire
Z:vmp/efdss.Simon Wilson. Reviewed PJH 2008.
M:2/4
L:1/8
Q:1/4=110
K:D
A/G/|FFFF|F2AF|EDEF|D2A,A/G/|\
FFFF|F2AF|G2E2|D3:|
|:E|AA !turn!BA/B/|ccdd|ccBB|ecAE|\
AA !turn!BA/B/|ccdd|c2B^G|A3:|
|:a/g/|ffff|f2af|edef|d2Aa/g/|\
ffff|f2af|g2e2|d3:|
